X:1018
T:Sarah
C:Joe Buchanan's Scottish Tome - Page 611.0
I:611 0
Z:Carl Allison
R:Waltz
L:1/4
M:3/4
K:G
D | "G"G>G G | "Em"G E G | "Am"A>B A | "D7"F D D | "G"G>G G | "Em"G E/G/ B/d/ | "A7"e f e | "D7"d2 e/f/ | 
"Em"g>g g | "Bm"f B d | "C"e>e e | "D"d B "B7"A | "Em"G>G G | "A7"G A B | "D7"A3 | "G"G2 :| 
B, | "Em"E>E E | "Em"E G B | "B7"((3A/B/A/) G F | "Em"E2 G/A/ | "C#/A7"B2 G/A/ | "C/G"B A G | "B7"F2 B, | 
"Em"E>E E | "Em"E G B | "B7"((3A/B/A/) G F | "Em"E2 G/A/ | "G"B>B B | "Em"e B G | "B7"((3A/A/A/) G F | "Em"E2 :|
D | "G"G>G G | "Em"G E G | "Am"A>B A | "D7"F D D | "G"G>G G | "Em"G E/G/ B/d/ | "A7"e f e | "D7"d2 e/f/ | 
"Em"g>g g | "Bm"f B d | "C"e>e e | "D"d B "A7"A | "Em"G>G G | "A7"G A B | "D7"A3 | "G"G2 z |] 
A/B/ | "Am"c e c | "D"B A B/A/ | "Em"G B G | "Bm"F D B, | "C"E C/E/ C/E/ | "D"F D/F/ D/F/ | "Em"G E/G/ E/G/ | "D"A2 A/B/ | 
"Am"c e c | "D"B A "B7"B/A/ | "Em"G B G | "Bm"F D B, | "C"E C/E/ C/E/ | "D"F D/F/ D/F/ | "Em"G E/G/ E/G/ | "D"A B D |]
"C7"G>G G | "Em"G E G | "Am"A>B A | "D7"F D D | "G"G>G G | "Em"G E/G/ B/d/ | "A7"e f e | "D7"d2 e/f/ | 
"Em"g>g g | "Bm"f B d | "C"e>e e | "D"d B "B7"A | "Em"G>G G | "A7"G A B | "D7"A3 | "G"G2 |]

